public/symbol.svg

<svg xmlns="http://www.w3.org/2000/svg" width="840" height="400" viewBox="0 0 840 400" xmlns:xlink="http://www.w3.org/1999/xlink">
  <defs>
    <rect id="a" width="840" height="400"/>
    <mask id="b" width="840" height="400" x="0" y="0" fill="white">
      <use xlink:href="#a"/>
    </mask>
    <path id="c" d="M419.994465,256.168039 C412.226473,246.893296 407.524528,234.940944 407.524528,221.893385 L407.54635,137.081503 C407.54635,130.165065 413.139896,124.540751 420.016287,124.540751 C426.891899,124.540751 432.486224,130.165065 432.486224,137.081503 L432.464402,221.893385 C432.464402,234.940944 427.762456,246.893296 419.994465,256.168039 L419.994465,256.168039 Z M513.518993,221.893385 C513.518993,251.28354 490.007706,275.192951 460.784408,275.192951 C449.013567,275.192951 438.032229,271.266366 429.226894,264.712382 C439.072689,253.1876 444.934339,238.243041 444.934339,221.893385 L444.956161,137.081503 C444.956161,123.251765 433.76751,112 420.016287,112 C406.264285,112 395.076413,123.251765 395.076413,137.081503 L395.054591,221.893385 C395.054591,238.243041 401.309823,253.1876 411.155618,264.712382 C402.350283,271.266366 391.368945,275.192951 379.598104,275.192951 C350.374806,275.192951 326.469937,251.28354 326.469937,221.893385 L326.469937,118.430813 L314,118.430813 L314,221.893385 C314,258.19684 343.630129,287.733702 379.729817,287.733702 C395.034327,287.733702 409.228233,282.38476 420.388047,273.501499 C431.547861,282.38476 445.414431,287.733702 460.718941,287.733702 C496.81785,287.733702 525.989709,258.19684 525.989709,221.893385 L525.989709,118.430813 L513.518993,118.430813 L513.518993,221.893385 Z"/>
  </defs>
  <g fill="none" fill-rule="evenodd">
    <use fill="#FFFFFF" stroke="#F1F4F5" stroke-width="2" mask="url(#b)" xlink:href="#a"/>
    <use fill="#8D989F" xlink:href="#c"/>
    <use fill="#000000" fill-opacity=".72" xlink:href="#c"/>
  </g>
</svg>

<svg xmlns="http://www.w3.org/2000/svg" width="840" height="400" viewBox="0 0 840 400" xmlns:xlink="http://www.w3.org/1999/xlink">
  <defs>
    <path id="a" d="M0 0h840v400H0z"/>
    <mask id="b" width="840" height="400" x="0" y="0" fill="#fff">
      <use xlink:href="#a"/>
    </mask>
    <path id="c" d="M419.994 256.168c-7.768-9.275-12.47-21.227-12.47-34.275l.022-84.81c0-6.918 5.594-12.542 12.47-12.542s12.47 5.626 12.47 12.543l-.022 84.81c0 13.05-4.702 25-12.47 34.276zm93.525-34.275c0 29.39-23.513 53.3-52.737 53.3-11.77 0-22.752-3.927-31.557-10.48 9.846-11.525 15.707-26.47 15.707-42.82l.022-84.81c0-13.83-11.188-25.083-24.94-25.083s-24.94 11.252-24.94 25.082l-.02 84.81c0 16.35 6.254 31.296 16.1 42.82-8.806 6.554-19.787 10.48-31.558 10.48-29.223 0-53.128-23.908-53.128-53.3v-103.46H314v103.46c0 36.305 29.63 65.842 65.73 65.842 15.304 0 29.498-5.35 40.658-14.233 11.16 8.886 25.026 14.235 40.33 14.235 36.1 0 65.272-29.537 65.272-65.84V118.43h-12.47v103.463z"/>
  </defs>
  <g fill="none" fill-rule="evenodd">
    <use fill="#FFF" stroke="#F1F4F5" stroke-width="2" mask="url(#b)" xlink:href="#a"/>
    <use fill="#8D989F" xlink:href="#c"/>
    <use fill="#000" fill-opacity=".72" xlink:href="#c"/>
  </g>
</svg>
